; generated by PrusaSlicer 2.9.3 on 2025-10-25 at 22:18:38 UTC


;
;
; 

; external perimeters extrusion width = 0.45mm
; perimeters extrusion width = 0.45mm
; infill extrusion width = 0.45mm
; solid infill extrusion width = 0.45mm
; top infill extrusion width = 0.40mm
; first layer extrusion width = 0.42mm

M73 P0 R11
M73 Q0 S11
M201 X1000 Y1000 Z200 E5000 ; sets maximum accelerations, mm/sec^2
M203 X200 Y200 Z12 E120 ; sets maximum feedrates, mm / sec
M204 S1250 T1250 ; sets acceleration (S) and retract acceleration (R), mm/sec^2
M205 X8.00 Y8.00 Z0.40 E4.50 ; sets the jerk limits, mm/sec
M205 S0 T0 ; sets the minimum extruding and travel feed rate, mm/sec

; printing object bracket.stl id:0 copy 0
; stop printing object bracket.stl id:0 copy 0

;TYPE:Custom
M862.3 P "MK3S" ; printer model check
M862.1 P0.4 ; nozzle diameter check
M115 U3.14.1 ; tell printer latest fw version
G90 ; use absolute coordinates
M83 ; extruder relative mode
M104 S215 ; set extruder temp
M140 S60 ; set bed temp
M190 S60 ; wait for bed temp
M109 S215 ; wait for extruder temp
G28 W ; home all without mesh bed level
G80 X112.246 Y98.2458 W25.5083 H13.5083 ; mesh bed levelling

G1 Z0.2 F720
G1 Y-3 F1000 ; go outside print area
G92 E0
G1 X60 E9 F1000 ; intro line
G1 X100 E12.5 F1000 ; intro line

G92 E0
M221 S95

; Don't change E values below. Excessive value can damage the printer.
M907 E430 ; set extruder motor current
G21 ; set units to millimeters
G90 ; use absolute coordinates
M83 ; use relative distances for extrusion

M900 K0.05 ; Filament gcode LA 1.5
M900 K30 ; Filament gcode LA 1.0




M107
;LAYER_CHANGE
;Z:0.2
;HEIGHT:0.2
G1 E-.8 F2100
G1 Z.6 F720
G1 X112.827 Y99.637 F10800
G1 Z.2 F720
M73 P1 R11
M73 Q1 S11
G1 E.8 F2100
M204 S800
;TYPE:Skirt/Brim
;WIDTH:0.42
G1 F1200
G1 X113.883 Y98.69 E.04447
G1 X115 Y98.434 E.03593
G1 X135 Y98.434 E.62709
G1 X136.363 Y98.827 E.04448
G1 X137.31 Y99.883 E.04447
G1 X137.566 Y101 E.03593
G1 X137.566 Y109 E.25083
G1 X137.173 Y110.363 E.04448
G1 X136.117 Y111.31 E.04447
G1 X135 Y111.566 E.03593
G1 X115 Y111.566 E.62709
G1 X113.637 Y111.173 E.04448
G1 X112.69 Y110.117 E.04447
G1 X112.434 Y109 E.03593
G1 X112.434 Y101 E.25083
G1 X112.81 Y99.694 E.04261
M204 S1000
G1 X113.184 Y99.811 F10800
M204 S800
G1 F1200
G1 X113.202 Y99.752 E.00193
G1 X114.235 Y98.949 E.04102
G1 X115 Y98.811 E.02437
G1 X135 Y98.811 E.62709
G1 X136.248 Y99.202 E.04101
G1 X137.051 Y100.235 E.04102
G1 X137.189 Y101 E.02437
G1 X137.189 Y109 E.25083
G1 X136.798 Y110.248 E.04101
G1 X135.765 Y111.051 E.04102
G1 X135 Y111.189 E.02437
G1 X115 Y111.189 E.62709
G1 X113.752 Y110.798 E.04101
M73 Q2 S11
G1 X112.949 Y109.765 E.04102
G1 X112.811 Y109 E.02437
G1 X112.811 Y101 E.25083
G1 X113.166 Y99.868 E.0372
M73 P2 R11
M204 S1000
;WIPE_START
G1 F8640
G1 X113.184 Y99.811 E-.0138
G1 X113.202 Y99.752 E-.01424
G1 X114.235 Y98.949 E-.30211
G1 X115 Y98.811 E-.17949
G1 X116.257 Y98.811 E-.29036
;WIPE_END
G1 Z.6 F720
; printing object bracket.stl id:0 copy 0
G1 X129.384 Y102.897 F10800
G1 Z.2 F720
G1 E.8 F2100
M204 S800
;TYPE:Perimeter
;WIDTH:0.419999
G1 F1200
G1 X129.439 Y102.826 E.00282
G1 X129.779 Y102.713 E.01123
G1 X133.221 Y102.713 E.10792
G1 X133.469 Y102.77 E.00798
;WIDTH:0.444381
G1 X133.799 Y103.279 E.02025
G1 X133.799 Y106.721 E.1149
;WIDTH:0.450279
G1 X133.793 Y106.822 E.00343
G1 X133.469 Y107.23 E.01765
;WIDTH:0.419999
G1 X133.221 Y107.287 E.00798
G1 X129.779 Y107.287 E.10792
G1 X129.439 Y107.174 E.01123
G1 X129.256 Y106.939 E.00934
G1 X129.213 Y106.721 E.00697
G1 X129.213 Y103.279 E.10792
G1 X129.256 Y103.061 E.00697
G1 X129.347 Y102.944 E.00465
M204 S1000
G1 X129.641 Y103.176 F10800
M204 S800
;TYPE:External perimeter
G1 F1200
G1 X129.665 Y103.128 E.00168
G1 X129.779 Y103.09 E.00377
G1 X133.221 Y103.09 E.10792
G1 X133.304 Y103.109 E.00267
G1 X133.41 Y103.279 E.00628
G1 X133.41 Y106.721 E.10792
G1 X133.304 Y106.891 E.00628
G1 X133.221 Y106.91 E.00267
G1 X129.779 Y106.91 E.10792
G1 X129.665 Y106.872 E.00377
G1 X129.59 Y106.721 E.00529
G1 X129.59 Y103.279 E.10792
G1 X129.615 Y103.229 E.00175
M204 S1000
;WIPE_START
G1 F8640
G1 X129.641 Y103.176 E-.01363
G1 X129.665 Y103.128 E-.01239
G1 X129.779 Y103.09 E-.02775
G1 X133.011 Y103.09 E-.74623
;WIPE_END
G1 Z.6 F720
G1 X134.213 Y101.787 F10800
G1 Z.2 F720
G1 E.8 F2100
M204 S800
;TYPE:Perimeter
G1 F1200
G1 X134.213 Y102.305 E.01624
;WIDTH:0.444381
G1 X134.201 Y106.721 E.14741
;WIDTH:0.450279
G1 X134.213 Y107.695 E.03299
;WIDTH:0.419999
G1 X134.213 Y108.213 E.01624
G1 X115.787 Y108.213 E.57773
G1 X115.787 Y101.787 E.20148
G1 X134.153 Y101.787 E.57585
M204 S1000
G1 X134.59 Y101.41 F10800
M204 S800
;TYPE:External perimeter
G1 F1200
G1 X134.59 Y102.305 E.02806
G1 X134.59 Y108.59 E.19706
G1 X115.41 Y108.59 E.60137
G1 X115.41 Y101.41 E.22512
M73 P3 R11
M73 Q3 S11
G1 X134.53 Y101.41 E.59949
M204 S1000
;WIPE_START
G1 F8640
G1 X134.59 Y101.41 E-.01385
G1 X134.59 Y102.305 E-.20666
G1 X134.59 Y104.815 E-.57949
;WIPE_END
G1 Z.6 F720
G1 X133.273 Y101.957 F10800
G1 Z.2 F720
G1 E.8 F2100
M204 S800
;TYPE:Solid infill
;WIDTH:0.423946
G1 F1200
G1 X133.867 Y102.551 E.02661
G1 X133.861 Y102.795 E.00773
G1 X133.644 Y102.467 E.01246
G1 X133.238 Y102.373 E.0132
G1 X133.151 Y102.374 E.00276
G1 X132.903 Y102.126 E.01111
G1 X132.365 Y102.126 E.01705
G1 X132.614 Y102.375 E.01116
G1 X132.076 Y102.377 E.01705
G1 X131.826 Y102.126 E.01122
G1 X131.287 Y102.126 E.01708
G1 X131.539 Y102.379 E.01131
G1 X131.002 Y102.381 E.01701
G1 X130.748 Y102.126 E.0114
G1 X130.209 Y102.126 E.01708
G1 X130.465 Y102.382 E.01147
G1 X129.928 Y102.384 E.01701
G1 X129.67 Y102.126 E.01156
G1 X129.131 Y102.126 E.01708
G1 X129.459 Y102.454 E.0147
G1 X129.231 Y102.552 E.00786
G1 X129.138 Y102.672 E.00481
G1 X128.593 Y102.126 E.02444
G1 X128.054 Y102.126 E.01708
G1 X128.926 Y102.999 E.03909
G1 X128.874 Y103.264 E.00856
G1 X128.874 Y103.485 E.007
G1 X127.515 Y102.126 E.06089
G1 X126.976 Y102.126 E.01708
G1 X128.874 Y104.024 E.08504
G1 X128.874 Y104.563 E.01708
G1 X126.437 Y102.126 E.10919
G1 X125.898 Y102.126 E.01708
G1 X128.874 Y105.102 E.13334
G1 X128.874 Y105.641 E.01708
G1 X125.359 Y102.126 E.15749
G1 X124.821 Y102.126 E.01705
G1 X129.043 Y106.349 E.18919
M204 S1000
;WIPE_START
G1 F8640
G1 X126.593 Y103.899 E-.8
;WIPE_END
G1 Z.6 F720
G1 X133.679 Y107.213 F10800
G1 Z.2 F720
G1 E.8 F2100
M204 S800
G1 F1200
G1 X133.857 Y107.391 E.00798
G1 X133.87 Y107.874 E.01531
G1 X133.801 Y107.874 E.00219
G1 X133.502 Y107.574 E.01342
G1 X133.376 Y107.615 E.0042
G1 X133.005 Y107.616 E.01175
G1 X133.262 Y107.874 E.01154
G1 X132.723 Y107.874 E.01708
G1 X132.468 Y107.618 E.01145
G1 X131.93 Y107.62 E.01705
G1 X132.184 Y107.874 E.01138
G1 X131.645 Y107.874 E.01708
G1 X131.393 Y107.621 E.01131
G1 X130.856 Y107.623 E.01701
G1 X131.107 Y107.874 E.01125
G1 X130.568 Y107.874 E.01708
G1 X130.15 Y107.456 E.01873
M204 S1000
G1 X130.199 Y108.043 F10800
M204 S800
G1 F1200
G1 X129.782 Y107.626 E.01868
G1 X129.235 Y107.453 E.01818
G1 X128.941 Y107.076 E.01515
G1 X128.874 Y106.718 E.01154
G1 X124.282 Y102.126 E.20575
G1 X123.743 Y102.126 E.01708
G1 X129.49 Y107.874 E.25752
G1 X128.951 Y107.874 E.01708
G1 X123.204 Y102.126 E.25752
G1 X122.665 Y102.126 E.01708
G1 X128.412 Y107.874 E.25752
G1 X127.873 Y107.874 E.01708
M73 Q4 S11
G1 X122.126 Y102.126 E.25752
G1 X121.588 Y102.126 E.01705
M73 P4 R11
G1 X127.335 Y107.874 E.25752
G1 X126.796 Y107.874 E.01708
G1 X121.049 Y102.126 E.25752
G1 X120.51 Y102.126 E.01708
G1 X126.257 Y107.874 E.25752
G1 X125.718 Y107.874 E.01708
G1 X119.971 Y102.126 E.25752
G1 X119.432 Y102.126 E.01708
G1 X125.179 Y107.874 E.25752
G1 X124.64 Y107.874 E.01708
G1 X118.893 Y102.126 E.25752
G1 X118.354 Y102.126 E.01708
G1 X124.102 Y107.874 E.25754
G1 X123.563 Y107.874 E.01708
G1 X117.816 Y102.126 E.25752
G1 X117.277 Y102.126 E.01708
G1 X123.024 Y107.874 E.25752
G1 X122.485 Y107.874 E.01708
G1 X116.738 Y102.126 E.25752
G1 X116.199 Y102.126 E.01708
G1 X121.946 Y107.874 E.25752
G1 X121.407 Y107.874 E.01708
G1 X116.126 Y102.593 E.23662
G1 X116.126 Y103.132 E.01708
G1 X120.868 Y107.874 E.21247
G1 X120.33 Y107.874 E.01705
G1 X116.126 Y103.67 E.18836
G1 X116.126 Y104.209 E.01708
M73 P4 R10
G1 X119.791 Y107.874 E.16421
G1 X119.252 Y107.874 E.01708
G1 X116.126 Y104.748 E.14006
G1 X116.126 Y105.287 E.01708
M73 Q5 S10
G1 X118.713 Y107.874 E.11591
G1 X118.174 Y107.874 E.01708
M73 P5 R10
G1 X116.126 Y105.826 E.09176
G1 X116.126 Y106.365 E.01708
G1 X117.635 Y107.874 E.06761
G1 X117.096 Y107.874 E.01708
G1 X116.126 Y106.904 E.04346
G1 X116.126 Y107.442 E.01705
G1 X116.727 Y108.043 E.02693
M204 S1000
M106 S84.15
;LAYER_CHANGE
;Z:0.4
;HEIGHT:0.2
;BEFORE_LAYER_CHANGE
G92 E0.0
;0.4


;WIPE_START
G1 F8640
G1 X116.126 Y107.442 E-.19625
G1 X116.126 Y106.904 E-.12423
G1 X117.096 Y107.874 E-.31675
G1 X117.635 Y107.874 E-.12446
G1 X117.518 Y107.757 E-.03831
;WIPE_END
G1 Z.4 F720
;AFTER_LAYER_CHANGE
;0.4
M104 S210 ; set temperature
; stop printing object bracket.stl id:0 copy 0
G1 Z.8
G1 X116.727 Y111.566 F10800
G1 Z.4 F720
G1 E.8 F2100
;TYPE:Skirt/Brim
;WIDTH:0.42
G1 F3000
G1 X115 Y111.566 E.05415
G1 X113.637 Y111.173 E.04448
G1 X112.69 Y110.117 E.04447
G1 X112.434 Y109 E.03593
G1 X112.434 Y101 E.25083
G1 X112.827 Y99.637 E.04448
G1 X113.883 Y98.69 E.04447
G1 X115 Y98.434 E.03593
G1 X135 Y98.434 E.62709
G1 X136.363 Y98.827 E.04448
G1 X137.31 Y99.883 E.04447
G1 X137.566 Y101 E.03593
G1 X137.566 Y109 E.25083
G1 X137.173 Y110.363 E.04448
G1 X136.117 Y111.31 E.04447
G1 X135 Y111.566 E.03593
G1 X116.787 Y111.566 E.57106
G1 X116.787 Y111.189 F10800
G1 F3000
G1 X115 Y111.189 E.05603
G1 X113.752 Y110.798 E.04101
G1 X112.949 Y109.765 E.04102
G1 X112.811 Y109 E.02437
G1 X112.811 Y101 E.25083
G1 X113.202 Y99.752 E.04101
G1 X114.235 Y98.949 E.04102
G1 X115 Y98.811 E.02437
G1 X135 Y98.811 E.62709
G1 X136.248 Y99.202 E.04101
G1 X137.051 Y100.235 E.04102
G1 X137.189 Y101 E.02437
G1 X137.189 Y109 E.25083
G1 X136.798 Y110.248 E.04101
G1 X135.765 Y111.051 E.04102
G1 X135 Y111.189 E.02437
G1 X116.847 Y111.189 E.56917
;WIPE_START
G1 F8640
G1 X116.787 Y111.189 E-.01385
G1 X115 Y111.189 E-.41262
G1 X113.752 Y110.798 E-.30198
G1 X113.562 Y110.553 E-.07155
;WIPE_END
G1 Z.8 F720
; printing object bracket.stl id:0 copy 0
G1 X129.557 Y103.06 F10800
G1 Z.4 F720
G1 E.8 F2100
M204 S800
;TYPE:Perimeter
;WIDTH:0.449999
G1 F1500
G1 X129.612 Y102.99 E.00301
G1 X129.979 Y102.868 E.01309
G1 X133.021 Y102.868 E.10297
G1 X133.321 Y102.946 E.01049
;WIDTH:0.491095
G1 X133.419 Y103.079 E.00616
;WIDTH:0.53219
G1 X133.518 Y103.212 E.00675
;WIDTH:0.573286
G1 X133.616 Y103.346 E.00732
;WIDTH:0.614381
G1 X133.714 Y103.479 E.00785
G1 X133.714 Y106.521 E.14455
;WIDTH:0.621795
G1 X133.708 Y106.642 E.00583
G1 X133.611 Y106.745 E.00681
;WIDTH:0.578846
G1 X133.514 Y106.848 E.0063
;WIDTH:0.535897
G1 X133.418 Y106.951 E.00577
;WIDTH:0.492948
G1 X133.321 Y107.054 E.00529
;WIDTH:0.449999
G1 X133.021 Y107.132 E.01049
G1 X129.979 Y107.132 E.10297
G1 X129.612 Y107.01 E.01309
G1 X129.415 Y106.756 E.01088
G1 X129.368 Y106.521 E.00811
G1 X129.368 Y103.479 E.10297
G1 X129.415 Y103.244 E.00811
G1 X129.521 Y103.108 E.00584
M204 S1000
G1 X129.841 Y103.346 F10800
M204 S800
;TYPE:External perimeter
G1 F1500
G1 X129.856 Y103.316 E.00114
G1 X129.979 Y103.275 E.00439
G1 X133.021 Y103.275 E.10297
G1 X133.121 Y103.301 E.0035
G1 X133.225 Y103.479 E.00698
G1 X133.225 Y106.521 E.10297
G1 X133.121 Y106.699 E.00698
G1 X133.021 Y106.725 E.0035
G1 X129.979 Y106.725 E.10297
G1 X129.856 Y106.684 E.00439
G1 X129.775 Y106.521 E.00616
G1 X129.775 Y103.479 E.10297
G1 X129.814 Y103.4 E.00298
M204 S1000
;WIPE_START
G1 F8640
G1 X129.841 Y103.346 E-.01394
G1 X129.856 Y103.316 E-.00774
G1 X129.979 Y103.275 E-.02994
G1 X133.021 Y103.275 E-.70241
G1 X133.121 Y103.301 E-.02386
G1 X133.169 Y103.383 E-.02211
;WIPE_END
G1 Z.8 F720
G1 X134.368 Y101.632 F10800
G1 Z.4 F720
G1 E.8 F2100
M204 S800
;TYPE:Perimeter
G1 F2360.815
M73 Q6 S10
G1 X134.368 Y102.334 E.02376
;WIDTH:0.491095
G1 X134.347 Y102.62 E.01069
;WIDTH:0.53219
G1 F2379.01
G1 X134.327 Y102.906 E.01166
;WIDTH:0.573286
G1 F2402.487
G1 X134.306 Y103.193 E.01269
;WIDTH:0.614381
G1 F2412.725
G1 X134.286 Y103.479 E.01362
G1 F2413.766
G1 X134.286 Y106.521 E.14455
;WIDTH:0.621795
G1 X134.282 Y106.692 E.00823
G1 F2412.471
G1 X134.303 Y106.935 E.01174
;WIDTH:0.578846
G1 F2413.744
G1 X134.325 Y107.179 E.01092
;WIDTH:0.535897
G1 F2415.218
G1 X134.346 Y107.422 E.01
;WIDTH:0.492948
G1 F2416.944
G1 X134.368 Y107.666 E.00917
;WIDTH:0.449999
G1 F2389.777
G1 X134.368 Y108.368 E.02376
G1 F2381.08
G1 X115.632 Y108.368 E.63419
G1 F2688.767
M73 P6 R10
G1 X115.632 Y101.632 E.22801
G1 F2381.048
G1 X134.308 Y101.632 E.63216
M204 S1000
G1 X134.775 Y101.225 F10800
M204 S800
;TYPE:External perimeter
G1 F1500
G1 X134.775 Y101.9 E.02285
G1 X134.775 Y108.1 E.20986
G1 X134.775 Y108.775 E.02285
G1 X134.1 Y108.775 E.02285
G1 X115.9 Y108.775 E.61605
G1 X115.225 Y108.775 E.02285
G1 X115.225 Y108.1 E.02285
G1 X115.225 Y101.9 E.20986
G1 X115.225 Y101.225 E.02285
G1 X115.9 Y101.225 E.02285
G1 X134.1 Y101.225 E.61605
G1 X134.715 Y101.225 E.02082
M204 S1000
;WIPE_START
G1 F8640
G1 X134.775 Y101.225 E-.01385
G1 X134.775 Y101.9 E-.15586
G1 X134.775 Y104.63 E-.63029
;WIPE_END
G1 Z.8 F720
G1 X116.109 Y102.031 F10800
G1 Z.4 F720
G1 E.8 F2100
;TYPE:Solid infill
;WIDTH:0.548766
G1 F3892
G1 X116.064 Y101.987 E.00265
G1 X116.003 Y102.003 E.00265
G1 X115.987 Y102.064 E.00265
G1 X116.031 Y102.109 E.00265
G1 X116.093 Y102.093 E.00269
;WIDTH:0.449999
G1 X116.743 Y101.998 E.02224
G1 X115.932 Y102.815 E.03897
;WIDTH:0.41646
G1 X115.866 Y102.888 E.00306
;WIDTH:0.38292
G1 X115.795 Y102.869 E.00208
G1 X115.814 Y102.94 E.00208
G1 X115.855 Y102.929 E.0012
;WIDTH:0.449999
G1 X115.998 Y103.318 E.01403
G1 X117.318 Y101.998 E.06319
G1 X117.894 Y101.998 E.0195
G1 X115.998 Y103.894 E.09076
G1 X115.998 Y104.47 E.0195
G1 X118.47 Y101.998 E.11833
G1 X119.046 Y101.998 E.0195
G1 X115.998 Y105.046 E.14591
G1 X115.998 Y105.621 E.01946
G1 X119.621 Y101.998 E.17343
G1 X120.197 Y101.998 E.0195
G1 X115.998 Y106.197 E.201
G1 X115.998 Y106.773 E.0195
G1 X120.773 Y101.998 E.22858
G1 X121.348 Y101.998 E.01946
G1 X115.998 Y107.348 E.2561
G1 X116.082 Y108.155 E.02746
;WIDTH:0.38292
G1 X115.862 Y108.138 E.00624
;WIDTH:0.41646
G1 X115.93 Y108.031 E.00394
;WIDTH:0.449999
G1 X115.998 Y107.924 E.00429
G1 X121.924 Y101.998 E.28367
G1 X122.5 Y101.998 E.0195
G1 X116.497 Y108.002 E.28738
G1 X117.072 Y108.002 E.01946
G1 X123.075 Y101.998 E.28738
G1 X123.651 Y101.998 E.0195
G1 X117.648 Y108.002 E.28738
G1 X118.224 Y108.002 E.0195
G1 X124.227 Y101.998 E.28738
G1 X124.803 Y101.998 E.0195
G1 X118.799 Y108.002 E.28741
G1 X119.375 Y108.002 E.0195
G1 X125.378 Y101.998 E.28738
G1 X125.954 Y101.998 E.0195
M73 Q7 S10
G1 X119.951 Y108.002 E.28738
G1 X120.527 Y108.002 E.0195
M73 P7 R10
G1 X126.53 Y101.998 E.28738
G1 X127.105 Y101.998 E.01946
G1 X121.102 Y108.002 E.28738
G1 X121.678 Y108.002 E.0195
G1 X127.681 Y101.998 E.28738
G1 X128.257 Y101.998 E.0195
G1 X122.254 Y108.002 E.28738
G1 X122.829 Y108.002 E.01946
G1 X128.832 Y101.998 E.28738
G1 X129.408 Y101.998 E.0195
G1 X123.405 Y108.002 E.28738
G1 X123.981 Y108.002 E.0195
G1 X129.984 Y101.998 E.28738
G1 X130.387 Y102.208 E.01538
;WIDTH:0.502562
G1 X130.109 Y102.486 E.01503
G1 X133.016 Y102.478 E.1111
;WIDTH:0.540129
G1 X133.273 Y102.524 E.01079
;WIDTH:0.582239
G1 X133.529 Y102.57 E.01166
G1 X133.848 Y102.93 E.02157
G1 X133.935 Y102.318 E.02772
G1 X133.935 Y102.065 E.01135
G1 X133.535 Y102.045 E.01796
;WIDTH:0.54391
G1 X133.134 Y102.026 E.01672
;WIDTH:0.505581
G1 X133.015 Y102.022 E.00458
;WIDTH:0.502562
G1 X130.453 Y102.025 E.09792
;WIPE_START
G1 F8640
G1 X133.015 Y102.022 E-.59157
G1 X133.134 Y102.026 E-.02749
G1 X133.535 Y102.045 E-.0927
G1 X133.917 Y102.064 E-.08824
;WIPE_END
G1 Z.8 F720
G1 X129.35 Y102.992 F10800
G1 Z.4 F720
G1 E.8 F2100
;WIDTH:0.38292
G1 F3892
G1 X129.145 Y103.269 E.00974
;WIDTH:0.41646
G1 X129.073 Y103.412 E.00497
;WIDTH:0.449999
G1 X129.002 Y103.556 E.00543
G1 X124.556 Y108.002 E.21283
G1 X125.132 Y108.002 E.0195
G1 X129.002 Y104.132 E.18525
G1 X129.002 Y104.708 E.0195
G1 X125.708 Y108.002 E.15768
G1 X126.283 Y108.002 E.01946
